uniqlo.svg

<svg viewBox="0 0 24 24" xmlns="http://www.w3.org/2000/svg"><path d="M0.669518 0L0.669518 6.39658C0.669519 8.19408 2.07167 9.5832 3.86081 9.5832C5.65353 9.58321 7.02411 8.19408 7.02411 6.39658L7.02411 0L5.15319 0L5.15319 6.39658C5.15319 7.12323 4.58148 7.70762 3.86081 7.70762C3.14372 7.70762 2.56843 7.12323 2.56843 6.39658L2.56843 0L0.669518 0ZM9.62286 0L9.62286 9.57854L11.5638 9.57854L11.5638 4.09176L14.0785 9.57854L16.0241 9.57854L16.0241 0L14.0785 0L14.0785 5.47745L11.5638 0L9.62286 0ZM19.1921 0L19.1921 9.57854L21.1423 9.57854L21.1423 0L19.1921 0ZM3.86081 12.4852C2.07406 12.4852 0.669517 13.9156 0.669518 15.6485L0.669518 18.8958C0.669518 20.6061 2.07406 22.0638 3.86081 22.0638C4.07713 22.0638 4.28522 22.0402 4.486 22.0031L5.15319 24L7.02411 24L6.13764 21.1213C6.65633 20.5285 7.02411 19.7228 7.02411 18.8958L7.02411 15.6485C7.02411 13.9156 5.65473 12.4852 3.86081 12.4852ZM3.86081 14.3561C4.58268 14.3561 5.15319 14.9326 5.15319 15.6485L5.15319 18.8958C5.15319 19.5256 4.58268 20.1135 3.86081 20.1135C3.14491 20.1135 2.56843 19.5256 2.56843 18.8958L2.56843 15.6485C2.56843 14.9326 3.14492 14.3561 3.86081 14.3561ZM9.62286 12.4852L9.62286 22.0591L16.0241 22.0591L16.0241 20.1135L11.5638 20.1135L11.5638 12.4852L9.62286 12.4852ZM20.1625 12.4852C18.371 12.4852 16.9992 13.9156 16.9992 15.6485L16.9992 18.8958C16.9992 20.6061 18.371 22.0638 20.1625 22.0638C21.9505 22.0638 23.3305 20.6061 23.3305 18.8958L23.3305 15.6485C23.3305 13.9156 21.9505 12.4852 20.1625 12.4852ZM20.1625 14.3561C20.8748 14.3561 21.4642 14.9326 21.4642 15.6485L21.4642 18.8958C21.4642 19.5256 20.8748 20.1135 20.1625 20.1135C19.4466 20.1135 18.8655 19.5256 18.8655 18.8958L18.8655 15.6485C18.8655 14.9326 19.4466 14.3561 20.1625 14.3561Z" fill="#ed1d24"/></svg>

<svg viewBox="0 0 24 24" xmlns="http://www.w3.org/2000/svg"><path d="M.67 0v6.397c0 1.797 1.402 3.186 3.19 3.186 1.794 0 3.164-1.389 3.164-3.186V0h-1.87v6.397c0 .726-.573 1.31-1.293 1.31a1.298 1.298 0 0 1-1.293-1.31V0H.67Zm8.953 0v9.579h1.94V4.092l2.515 5.487h1.946V0h-1.946v5.477L11.565 0H9.623Zm9.57 0v9.579h1.95V0h-1.95ZM3.86 12.485A3.17 3.17 0 0 0 .67 15.65v3.247a3.19 3.19 0 0 0 3.816 3.107L5.153 24h1.871l-.886-2.879c.518-.592.886-1.398.886-2.225v-3.248a3.142 3.142 0 0 0-3.163-3.163Zm0 1.871c.722 0 1.292.577 1.292 1.293v3.247c0 .63-.57 1.217-1.292 1.217-.716 0-1.293-.587-1.293-1.217v-3.248a1.29 1.29 0 0 1 1.293-1.292Zm5.762-1.87v9.573h6.401v-1.946h-4.46v-7.628H9.623Zm10.54 0a3.144 3.144 0 0 0-3.164 3.162v3.248a3.162 3.162 0 0 0 3.164 3.168 3.168 3.168 0 0 0 3.168-3.168v-3.248a3.15 3.15 0 0 0-3.168-3.163Zm0 1.87a1.3 1.3 0 0 1 1.301 1.293v3.247c0 .63-.59 1.217-1.301 1.217-.716 0-1.297-.587-1.297-1.217v-3.248c0-.715.58-1.292 1.297-1.292Z" fill="#ed1d24"/></svg>
